Papirus/22x22/panel/audacious-panel.svg

<?xml version="1.0" encoding="UTF-8" standalone="no"?>
<svg xmlns:dc="http://purl.org/dc/elements/1.1/" xmlns:cc="http://creativecommons.org/ns#" xmlns:rdf="http://www.w3.org/1999/02/22-rdf-syntax-ns#" xmlns:svg="http://www.w3.org/2000/svg" xmlns="http://www.w3.org/2000/svg" version="1.0" width="22" height="22" id="svg2817">
    <metadata id="metadata57">
        <rdf:RDF>
            <cc:Work rdf:about="">
                <dc:format>
                    image/svg+xml
                </dc:format>
                <dc:type rdf:resource="http://purl.org/dc/dcmitype/StillImage"/>
                <dc:title/>
            </cc:Work>
        </rdf:RDF>
    </metadata>
    <path id="path4877" d="m 11,3 a 7.9999999,7.9999999 0 0 0 -8,8 7.9999999,7.9999999 0 0 0 8,8 7.9999999,7.9999999 0 0 0 8,-8 7.9999999,7.9999999 0 0 0 -8,-8 z m -0.115234,4.001953 0.0019,0 c 1.867291,0.07063 2.971939,1.332986 3.09375,3.173828 0.137304,2.075126 -0.474612,2.616212 -0.212891,3.033203 0.54652,0.870793 -0.226444,1.097967 -0.740234,1.523438 C 12.707738,14.99706 12.089206,14.876614 11.783203,14.5 10.853319,13.962301 11.213344,14.9954 9.2929688,15 8.2947189,14.959087 7.3776717,14.238828 7.1191406,13.267578 6.7226523,11.778105 7.3045671,10.678952 8.9238281,10.160156 9.3921824,10.010095 10.319882,10.099546 10.728516,9.800781 11.11444,9.518606 10.977802,9.113415 10.503906,9.060547 9.8242122,8.984727 8.7638549,9.292402 8.1367188,9.167969 7.6333007,9.068089 7.4800807,8.106796 7.8085938,7.693359 8.3461891,7.016733 9.7248712,7.045819 10.503906,7.009766 c 0.131197,-0.0061 0.256377,-0.012549 0.38086,-0.0078 z m -0.248047,4.449219 c -0.43248,0 -0.7910159,0.322778 -0.7910159,0.724609 0,0.401848 0.3585069,0.732422 0.7910159,0.732422 0.432497,0 0.773437,-0.330591 0.773437,-0.732422 0,-0.401814 -0.340929,-0.72461 -0.773437,-0.724609 z" style="fill:#ffffff;fill-opacity:1"/>
</svg>

<?xml version="1.0" encoding="UTF-8" standalone="no"?>
<svg id="svg2817" xmlns:rdf="http://www.w3.org/1999/02/22-rdf-syntax-ns#" xmlns="http://www.w3.org/2000/svg" height="22" width="22" version="1.0" xmlns:cc="http://creativecommons.org/ns#" xmlns:dc="http://purl.org/dc/elements/1.1/">
 <metadata id="metadata57">
  <rdf:RDF>
   <cc:Work rdf:about="">
    <dc:format>image/svg+xml</dc:format>
    <dc:type rdf:resource="http://purl.org/dc/dcmitype/StillImage"/>
    <dc:title/>
   </cc:Work>
  </rdf:RDF>
 </metadata>
 <path id="path4877" fill="#fff" d="m11 3a8 8 0 0 0 -8 8 8 8 0 0 0 8 8 8 8 0 0 0 8 -8 8 8 0 0 0 -8 -8zm-0.11523 4.002h0.0019c1.8673 0.07063 2.9719 1.333 3.0938 3.1738 0.1373 2.0751-0.47461 2.6162-0.21289 3.0332 0.54652 0.87079-0.22644 1.098-0.74023 1.5234-0.32 0.265-0.939 0.145-1.245-0.232-0.93-0.538-0.57 0.495-2.49 0.5-0.9983-0.041-1.9153-0.761-2.1739-1.732-0.3964-1.49 0.1855-2.589 1.8047-3.108 0.4684-0.15 1.3962-0.06 1.8052-0.3592 0.385-0.2822 0.249-0.6874-0.225-0.7403-0.6798-0.0758-1.7401 0.2319-2.3673 0.1075-0.5034-0.0999-0.6566-1.0612-0.3281-1.4746 0.5376-0.6767 1.9163-0.6476 2.6954-0.6836 0.1312-0.0061 0.25638-0.012549 0.38086-0.0078zm-0.24805 4.4492c-0.43248 0-0.79102 0.32278-0.79102 0.72461 0 0.40185 0.35851 0.73242 0.79102 0.73242 0.4325 0 0.77344-0.33059 0.77344-0.73242 0-0.40181-0.34093-0.72461-0.77344-0.72461z"/>
</svg>
